**kern	**silbe	**kern	**silbe	**harmony	**phrase	**leadinstrument	**rhyme	**timestamp	**harte
*ICvox	*	*ICvox	*	*M4/4	*	*	*	*	*M4/4
*VRlead	*	*VRharmonize*VRbacking	*	*	*	*	*	*	*
*Hstimme	*	*Nstimme	*	*	*	*	*	*	*
*C:	*	*C:	*	*C:	*	*	*	*	*C:
*M4/4	*	*M4/4	*	*	*	*	*	*	*
*clefG2	*	*clefC3	*	*	*	*	*	*	*
r;	.	r;	.	1r;	.	r	.	0	N.C.
4g	Freeze	1r	.	1r	.	r	.	NA	N.C.
4e	frame!	.	.	.	.	.	.	.	.
2r	.	.	.	.	.	.	.	.	.
r;	.	r;	.	1r;	.	r	.	.	N.C.
r;	.	r;	.	1r;	.	r	.	.	N.C.
=1	=1	=1	=1	=1	=1	=1	=1	=1	=1
*>Letter>A	*>Letter>A	*>Letter>A	*>Letter>A	*>Letter>A	*>Letter>A	*>Letter>A	*>Letter>A	*>Letter>A	*>Letter>A
*>Label>Intro	*>Label>Intro	*>Label>Intro	*>Label>Intro	*>Label>Intro	*>Label>Intro	*>Label>Intro	*>Label>Intro	*>Label>Intro	*>Label>Intro
1r	.	1r	.	1CM	newline	organ	.	NA	C:maj
=2	=2	=2	=2	=2	=2	=2	=2	=2	=2
1r	.	1r	.	1CM	.	organ	.	.	C:maj
=3	=3	=3	=3	=3	=3	=3	=3	=3	=3
1r	.	1r	.	1B-M	.	organ	.	.	B-:maj
=4	=4	=4	=4	=4	=4	=4	=4	=4	=4
1r	.	1r	.	1FM	.	organ	.	.	F:maj
=5	=5	=5	=5	=5	=5	=5	=5	=5	=5
1r	.	1r	.	1CM	.	organ	.	.	C:maj
=6	=6	=6	=6	=6	=6	=6	=6	=6	=6
1r	.	1r	.	1CM	.	organ	.	.	C:maj
=7	=7	=7	=7	=7	=7	=7	=7	=7	=7
1r	.	1r	.	1B-M	.	organ	.	.	B-:maj
=8	=8	=8	=8	=8	=8	=8	=8	=8	=8
1r	.	1r	.	1FM	.	organ	.	.	F:maj
=9	=9	=9	=9	=9	=9	=9	=9	=9	=9
*>Letter>B	*>Letter>B	*>Letter>B	*>Letter>B	*>Letter>B	*>Letter>B	*>Letter>B	*>Letter>B	*>Letter>B	*>Letter>B
*>Label>Instrumental	*>Label>Instrumental	*>Label>Instrumental	*>Label>Instrumental	*>Label>Instrumental	*>Label>Instrumental	*>Label>Instrumental	*>Label>Instrumental	*>Label>Instrumental	*>Label>Instrumental
1r	.	1r	.	1CM	newline	trumpet	.	NA	C:maj
=10	=10	=10	=10	=10	=10	=10	=10	=10	=10
1r	.	1r	.	1CM	.	trumpet	.	.	C:maj
=11	=11	=11	=11	=11	=11	=11	=11	=11	=11
1r	.	1r	.	1B-M	.	trumpet	.	.	B-:maj
=12	=12	=12	=12	=12	=12	=12	=12	=12	=12
1r	.	1r	.	1FM	.	trumpet	.	.	F:maj
=13	=13	=13	=13	=13	=13	=13	=13	=13	=13
1r	.	1r	.	1CM	.	trumpet	.	.	C:maj
=14	=14	=14	=14	=14	=14	=14	=14	=14	=14
1r	.	1r	.	1CM	.	trumpet	.	.	C:maj
=15	=15	=15	=15	=15	=15	=15	=15	=15	=15
1r	.	1r	.	1B-M	.	trumpet	.	.	B-:maj
=16	=16	=16	=16	=16	=16	=16	=16	=16	=16
1r	.	1r	.	1FM	.	trumpet	.	.	F:maj
=17	=17	=17	=17	=17	=17	=17	=17	=17	=17
*>Letter>B	*>Letter>B	*>Letter>B	*>Letter>B	*>Letter>B	*>Letter>B	*>Letter>B	*>Letter>B	*>Letter>B	*>Letter>B
*>Label>Verse	*>Label>Verse	*>Label>Verse	*>Label>Verse	*>Label>Verse	*>Label>Verse	*>Label>Verse	*>Label>Verse	*>Label>Verse	*>Label>Verse
4r	.	4r	.	1CM	newline	voice	.	NA	C:maj
8c	I	8e	I	.	.	.	.	.	.
8~B-	could	8~d	could	.	.	.	.	.	.
8c	see	8e	see	.	.	.	.	.	.
8c	it	8e	it	.	.	.	.	.	.
8c	was	8e	was	.	.	.	.	.	.
8c	a	8e	a	.	.	.	.	.	.
=18	=18	=18	=18	=18	=18	=18	=18	=18	=18
4e	rough-	4g	rough-	1CM	.	voice	.	.	C:maj
4c	-cut	4e	-cut	.	.	.	.	.	.
4B-	Tues-	4d	Tues-	.	.	.	.	.	.
4c	-day	4e	-day	.	.	.	A	.	.
=19	=19	=19	=19	=19	=19	=19	=19	=19	=19
4r	.	4r	.	1B-M	.	voice	.	.	B-:maj
4B-	slow	4d	slow	.	.	.	.	.	.
4B-	mo-	4~d	mo-	.	.	.	.	.	.
8c	-tion	8e-	-tion	.	.	.	.	.	.
[8e-	week	[8g	week	.	.	.	.	.	.
=20	=20	=20	=20	=20	=20	=20	=20	=20	=20
8e-]	_	8g]	_	1FM	.	voice	.	.	F:maj
4.d	days	4.f	days	.	.	.	A	.	.
4c	stare	4e-	stare	.	.	.	.	.	.
8A	me	8~d	me	.	.	.	.	.	.
[8c	down	[8e	down	.	.	.	B	.	.
=21	=21	=21	=21	=21	=21	=21	=21	=21	=21
4.c]	_	4.e]	_	1CM	.	voice	.	.	C:maj
8A	_	8d	_	.	.	.	.	.	.
2G	_	2c	_	.	.	.	.	.	.
=22	=22	=22	=22	=22	=22	=22	=22	=22	=22
1r	.	1r	.	1CM	.	voice	.	.	C:maj
=23	=23	=23	=23	=23	=23	=23	=23	=23	=23
4r	.	4r	.	1B-M	.	voice	.	.	B-:maj
4B-	Her	4d	Her	.	.	.	.	.	.
4B-	lip-	4d	lip-	.	.	.	.	.	.
4c	-stick	4~e-	-stick	.	.	.	.	.	.
=24	=24	=24	=24	=24	=24	=24	=24	=24	=24
4e-	re-	4g	re-	1FM	.	voice	(c	.	F:maj
4d	-flex	4f	-flex	.	.	.	C)	.	.
4c	got	4e-	got	.	.	.	.	.	.
8B-	me	8d	me	.	.	.	.	.	.
[8c	wound	[8e	wound	.	.	.	B	.	.
=25	=25	=25	=25	=25	=25	=25	=25	=25	=25
4.c]	_	4.e]	_	1CM	newline	voice	.	NA	C:maj
8A	_	8d	_	.	.	.	.	.	.
2G	_	2c	_	.	.	.	.	.	.
=26	=26	=26	=26	=26	=26	=26	=26	=26	=26
1r	.	1r	.	1CM	.	voice	.	.	C:maj
=27	=27	=27	=27	=27	=27	=27	=27	=27	=27
4r	.	4r	.	1B-M	.	voice	.	.	B-:maj
4B-	There	4d	There	.	.	.	.	.	.
4B-	were	4d	were	.	.	.	.	.	.
4c	no	4e-	no	.	.	.	.	.	.
=28	=28	=28	=28	=28	=28	=28	=28	=28	=28
8e-	de-	8g	de-	1FM	.	voice	(c	.	F:maj
4.d	-fects	4.f	-fects	.	.	.	C)	.	.
4c	to	4e-	to	.	.	.	.	.	.
8A	be	8~d	be	.	.	.	.	.	.
[8c	found	[8e	found	.	.	.	B	.	.
=29	=29	=29	=29	=29	=29	=29	=29	=29	=29
4.c]	_	4.e]	_	1CM	.	voice	.	.	C:maj
8A	_	8d	_	.	.	.	.	.	.
2G	_	2c	_	.	.	.	.	.	.
=30	=30	=30	=30	=30	=30	=30	=30	=30	=30
1r	.	1r	.	1CM	.	voice	.	.	C:maj
=31	=31	=31	=31	=31	=31	=31	=31	=31	=31
4B-	Snap-	4d	Snap-	1B-M	.	voice	.	.	B-:maj
4B-	-shot	4d	-shot	.	.	.	.	.	.
8B-	i-	8d	i-	.	.	.	.	.	.
4c	-mage	4e-	-mage	.	.	.	.	.	.
8dq	_	8fq	_	.	.	.	.	.	.
[8e-	froze	[8g	froze	.	.	.	.	.	.
=32	=32	=32	=32	=32	=32	=32	=32	=32	=32
4.e-]	_	4.g]	_	1FM	.	voice	.	.	F:maj
8d	with-	8f	with-	.	.	.	.	.	.
4c	-out	4e-	-out	.	.	.	.	.	.
8B-	a	8~d	a	.	.	.	.	.	.
8B-q	_	.	.	.	.	.	.	.	.
[8B	sound	[8d	sound	.	.	.	B	.	.
=33	=33	=33	=33	=33	=33	=33	=33	=33	=33
1B_	_	1d_	_	1GM	newline	voice	.	NA	G:maj
=34	=34	=34	=34	=34	=34	=34	=34	=34	=34
2B_	_	2d_	_	1GM	.	voice	.	.	G:maj
8B]	_	8d]	_	.	.	.	.	.	.
8A	_	8c	_	.	.	.	.	.	.
4G	_	4B	_	.	.	.	.	.	.
=35	=35	=35	=35	=35	=35	=35	=35	=35	=35
1A	_	1c	_	1FM	.	voice	.	.	F:maj
=36	=36	=36	=36	=36	=36	=36	=36	=36	=36
1r	.	1r	.	1FM	.	voice	.	.	F:maj
=37	=37	=37	=37	=37	=37	=37	=37	=37	=37
1r	.	1r	.	2GM	newline	organ	.	NA	G:maj
.	.	.	.	2A-M	.	organ	.	.	A-:maj/7
=38	=38	=38	=38	=38	=38	=38	=38	=38	=38
1r	.	1r	.	2AM	.	organ	.	.	A:maj/b7
.	.	.	.	2A-M	.	organ	.	.	A-:maj/7
=39	=39	=39	=39	=39	=39	=39	=39	=39	=39
1r	.	1r	.	2GM	.	organ	.	.	G:maj
.	.	.	.	2A-M	.	organ	.	.	A-:maj/7
=40	=40	=40	=40	=40	=40	=40	=40	=40	=40
1r	.	1r	.	2B-M	.	organ	.	.	B-:maj/6
.	.	.	.	2BM	.	organ	.	.	B:maj/b6
=41	=41	=41	=41	=41	=41	=41	=41	=41	=41
*>Letter>B	*>Letter>B	*>Letter>B	*>Letter>B	*>Letter>B	*>Letter>B	*>Letter>B	*>Letter>B	*>Letter>B	*>Letter>B
*>Label>Verse	*>Label>Verse	*>Label>Verse	*>Label>Verse	*>Label>Verse	*>Label>Verse	*>Label>Verse	*>Label>Verse	*>Label>Verse	*>Label>Verse
4r	.	4r	.	1CM	newline	voice	.	NA	C:maj
8c	Thurs-	8e	Thurs-	.	.	.	.	.	.
8c	-day	8e	-day	.	.	.	.	.	.
8c	mor-	8e	mor-	.	.	.	.	.	.
8c	-ning	8e	-ning	.	.	.	.	.	.
8c	was	8e	was	.	.	.	.	.	.
8c	a	8e	a	.	.	.	.	.	.
=42	=42	=42	=42	=42	=42	=42	=42	=42	=42
8dq	_	.	.	.	.	.	.	.	.
4e-	hot	4g	hot	1CM	.	voice	.	.	C:maj
4c	flash	4e	flash	.	.	.	.	.	.
4B-	fac-	4d	fac-	.	.	.	.	.	.
4c	-tor	4e	-tor	.	.	.	.	.	.
=43	=43	=43	=43	=43	=43	=43	=43	=43	=43
4r	.	4r	.	1B-M	.	voice	.	.	B-:maj
4B-	her	4d	her	.	.	.	.	.	.
4B-	face	4d	face	.	.	.	.	.	.
4c	still	4e-	still	.	.	.	.	.	.
=44	=44	=44	=44	=44	=44	=44	=44	=44	=44
8e-	fo-	8g	fo-	1FM	.	voice	.	.	F:maj
4.d	-cused	4.f	-cused	.	.	.	.	.	.
4c	in	4e-	in	.	.	.	.	.	.
4A	my	4~c	my	.	.	.	.	.	.
=45	=45	=45	=45	=45	=45	=45	=45	=45	=45
8Aq	_	8dq	_	.	.	.	.	.	.
4.c	mind	4.e	_	1CM	.	voice	D	.	C:maj
8A	_	8d	_	.	.	.	.	.	.
2G	_	2c	_	.	.	.	.	.	.
=46	=46	=46	=46	=46	=46	=46	=46	=46	=46
1r	.	4r	.	1CM	.	voice	.	.	C:maj
.	.	8c 8e	Dee-	.	.	.	.	.	.
.	.	8c 8e	-dle	.	.	.	.	.	.
.	.	8c 8e	lee-	.	.	.	.	.	.
.	.	8c 8e	-dle	.	.	.	.	.	.
.	.	4c 4e	lee!	.	.	.	.	.	.
=47	=47	=47	=47	=47	=47	=47	=47	=47	=47
4~B-	Test	4~d	Test	1B-M	.	voice	.	.	B-:maj
4~B-	strip	4~d	strip	.	.	.	.	.	.
4B-	proof	4d	proof	.	.	.	.	.	.
8c	sheet	8~e-	sheet	.	.	.	.	.	.
8dq	_	8fq	_	.	.	.	.	.	.
[8e-	love	[8g	love	.	.	.	.	.	.
=48	=48	=48	=48	=48	=48	=48	=48	=48	=48
4e-]	_	4g]	_	1FM	.	voice	.	.	F:maj
4d	is	4f	is	.	.	.	.	.	.
4c	hard	4e-	hard	.	.	.	.	.	.
8B-	to	8d	to	.	.	.	.	.	.
8Aq	_	8dq	_	.	.	.	.	.	.
[8c	find	[8e	find	.	.	.	D	.	.
=49	=49	=49	=49	=49	=49	=49	=49	=49	=49
4.c]	_	4.e]	_	1CM	newline	voice	.	NA	C:maj
8A	_	8d	_	.	.	.	.	.	.
2G	_	2c	_	.	.	.	.	.	.
=50	=50	=50	=50	=50	=50	=50	=50	=50	=50
1r	.	4r	.	1CM	.	voice	.	.	C:maj
.	.	8c 8e	Dee-	.	.	.	.	.	.
.	.	8c 8e	-dle	.	.	.	.	.	.
.	.	8c 8e	lee-	.	.	.	.	.	.
.	.	8c 8e	-dle	.	.	.	.	.	.
.	.	4c 4e	lee!	.	.	.	.	.	.
=51	=51	=51	=51	=51	=51	=51	=51	=51	=51
4B-	Fri-	4d	Fri-	1B-M	.	voice	.	.	B-:maj
8B-	-day	8d	-day	.	.	.	.	.	.
[8B-	night,	[8d	night,	.	.	.	.	.	.
4B-]	_	4d]	_	.	.	.	.	.	.
8c	we'll	8~e-	we'll	.	.	.	.	.	.
8dq	_	8fq	_	.	.	.	.	.	.
[8e-	dance	[8g	dance	.	.	.	.	.	.
=52	=52	=52	=52	=52	=52	=52	=52	=52	=52
4e-]	_	4g]	_	1FM	.	voice	.	.	F:maj
4d	the	4f	the	.	.	.	.	.	.
4c	spot-	4e-	spot-	.	.	.	.	.	.
4A	-light	4c	-light	.	.	.	.	.	.
=53	=53	=53	=53	=53	=53	=53	=53	=53	=53
4.c	grind	4.e	grind	1CM	.	voice	D	.	C:maj
8A	_	8d	_	.	.	.	.	.	.
2G	_	2c	_	.	.	.	.	.	.
=54	=54	=54	=54	=54	=54	=54	=54	=54	=54
1r	.	4r	.	1CM	.	voice	.	.	C:maj
.	.	8c 8e	Dee-	.	.	.	.	.	.
.	.	8c 8e	-dle	.	.	.	.	.	.
.	.	8c 8e	lee-	.	.	.	.	.	.
.	.	8c 8e	-dle	.	.	.	.	.	.
.	.	4c 4e	lee!	.	.	.	.	.	.
=55	=55	=55	=55	=55	=55	=55	=55	=55	=55
4~B-	Stop	4d	Stop	1B-M	.	voice	.	.	B-:maj
4~B-	time	4d	time	.	.	.	.	.	.
4B-	heart	4d	heart	.	.	.	.	.	.
8c	for	8e-	for	.	.	.	.	.	.
8dq	_	8fq	_	.	.	.	.	.	.
8e-	me,	8g	me,	.	.	.	.	.	.
=56	=56	=56	=56	=56	=56	=56	=56	=56	=56
8d	_	8f	_	1FM	.	voice	.	.	F:maj
4.d	if	4.f	if	.	.	.	.	.	.
4c	she's	4e-	she's	.	.	.	.	.	.
4A	not	4~d	not	.	.	.	.	.	.
=57	=57	=57	=57	=57	=57	=57	=57	=57	=57
[1B	mine	[1d	mine	1GM	newline	voice	D	NA	G:maj
=58	=58	=58	=58	=58	=58	=58	=58	=58	=58
2B_	_	2d_	_	1GM	.	voice	.	.	G:maj
8B]	_	8d]	_	.	.	.	.	.	.
8A	_	8c	_	.	.	.	.	.	.
4G	_	4B	_	.	.	.	.	.	.
=59	=59	=59	=59	=59	=59	=59	=59	=59	=59
[2A	_	[2c	_	1FM	.	voice	.	.	F:maj
8A]	_	8c]	_	.	.	.	.	.	.
8r	.	8r	.	.	.	.	.	.	.
4r	.	4r	.	.	.	.	.	.	.
=60	=60	=60	=60	=60	=60	=60	=60	=60	=60
1r	.	1r	.	1FM	.	voice	.	.	F:maj
=61	=61	=61	=61	=61	=61	=61	=61	=61	=61
1r	.	1r	.	2GM	newline	organ	.	NA	G:maj
.	.	.	.	2A-M	.	organ	.	.	A-:maj/7
=62	=62	=62	=62	=62	=62	=62	=62	=62	=62
1r	.	1r	.	2AM	.	organ	.	.	A:maj/b7
.	.	.	.	2A-M	.	organ	.	.	A-:maj/7
=63	=63	=63	=63	=63	=63	=63	=63	=63	=63
1r	.	1r	.	2GM	.	organ	.	.	G:maj
.	.	.	.	2A-M	.	organ	.	.	A-:maj/7
=64	=64	=64	=64	=64	=64	=64	=64	=64	=64
1r	.	1r	.	2B-M	.	organ	.	.	B-:maj/6
.	.	.	.	2BM	.	organ	.	.	B:maj/b6
=65	=65	=65	=65	=65	=65	=65	=65	=65	=65
*>Letter>C	*>Letter>C	*>Letter>C	*>Letter>C	*>Letter>C	*>Letter>C	*>Letter>C	*>Letter>C	*>Letter>C	*>Letter>C
*>Label>Chorus	*>Label>Chorus	*>Label>Chorus	*>Label>Chorus	*>Label>Chorus	*>Label>Chorus	*>Label>Chorus	*>Label>Chorus	*>Label>Chorus	*>Label>Chorus
2r	.	4g	Freeze	2CM	newline	voice	.	NA	C:maj
.	.	4e	frame	.	.	.	.	.	.
4c	Freeze	2r	.	2N	.	voice	.	.	N.C.
4A	frame	.	.	.	.	.	.	.	.
=66	=66	=66	=66	=66	=66	=66	=66	=66	=66
2r	.	4g	Freeze	2CM	.	voice	.	.	C:maj
.	.	4e	frame	.	.	.	.	.	.
4c	Freeze	2r	.	2N	.	voice	.	.	N.C.
8dq	_	.	.	.	.	.	.	.	.
4e-	frame	.	.	.	.	.	.	.	.
=67	=67	=67	=67	=67	=67	=67	=67	=67	=67
*clefG2	*	*	*	*	*	*	*	*	*
2r	.	4g	Freeze	2CM	.	voice	.	.	C:maj
.	.	4e	frame	.	.	.	.	.	.
8gq	_	.	.	.	.	.	.	.	.
4bb-	Freeze	2r	.	2N	.	voice	.	.	N.C.
4d-	frame!	.	.	.	.	.	.	.	.
=68	=68	=68	=68	=68	=68	=68	=68	=68	=68
*clefC3	*	*clefG2	*	*	*	*	*	*	*
2r	.	4g	Freeze	2CM	.	voice	.	.	C:maj
.	.	4e	frame,	.	.	.	.	.	.
8r	.	2bb-	woo!	2N	.	voice	.	.	N.C.
8c	N-	.	.	.	.	.	.	.	.
8dq	_	.	.	.	.	.	.	.	.
4e-	-now,	.	.	.	.	.	.	.	.
=69	=69	=69	=69	=69	=69	=69	=69	=69	=69
4d	freeze	1r	.	1GM	.	voice	.	.	G:maj
4r	.	.	.	.	.	.	.	.	.
2r	.	.	.	.	.	.	.	.	.
=70	=70	=70	=70	=70	=70	=70	=70	=70	=70
1r	.	1r	.	1N	.	voice	.	.	N.C.
=71	=71	=71	=71	=71	=71	=71	=71	=71	=71
*>Letter>B	*>Letter>B	*>Letter>B	*>Letter>B	*>Letter>B	*>Letter>B	*>Letter>B	*>Letter>B	*>Letter>B	*>Letter>B
*>Label>Verse	*>Label>Verse	*>Label>Verse	*>Label>Verse	*>Label>Verse	*>Label>Verse	*>Label>Verse	*>Label>Verse	*>Label>Verse	*>Label>Verse
4r	.	4r	.	1CM	newline	voice	.	NA	C:maj
8c	Now	8e	Now	.	.	.	.	.	.
8c	I'm	8e	I'm	.	.	.	.	.	.
8c	loo-	8e	loo-	.	.	.	.	.	.
8c	-king	8e	-king	.	.	.	.	.	.
8c	at	8e	at	.	.	.	.	.	.
8c	a	8e	a	.	.	.	.	.	.
=72	=72	=72	=72	=72	=72	=72	=72	=72	=72
8dq	_	.	.	.	.	.	.	.	.
4e-	flash-	4g	flash-	1CM	.	voice	.	.	C:maj
4c	-back	4e	-back	.	.	.	.	.	.
4B-	Sun-	4d	Sun-	.	.	.	.	.	.
4c	-day,	4e	-day,	.	.	.	.	.	.
=73	=73	=73	=73	=73	=73	=73	=73	=73	=73
4B-	zoom	4d	zoom	1B-M	.	voice	.	.	B-:maj
4B-	lens	4d	lens	.	.	.	.	.	.
8B-	fee-	8d	fee-	.	.	.	.	.	.
8B-	-l-	8d	-l-	.	.	.	.	.	.
4c	-ings	4e-	-ings	.	.	.	.	.	.
=74	=74	=74	=74	=74	=74	=74	=74	=74	=74
8dq	_	8fq	_	.	.	.	.	.	.
4e-	just	4g	just	1FM	.	voice	.	.	F:maj
4d	won't	4f	won't	.	.	.	.	.	.
4c	dis-	4e-	dis-	.	.	.	.	.	.
8A	-ap-	8~c	-ap-	.	.	.	.	.	.
[8c	-pear	[8e	-pear	.	.	.	E	.	.
=75	=75	=75	=75	=75	=75	=75	=75	=75	=75
8Aq	_	8dq	_	.	.	.	.	.	.
4.c]	_	4.e]	_	1CM	.	voice	.	.	C:maj
8A	_	8d	_	.	.	.	.	.	.
2G	_	2c	_	.	.	.	.	.	.
=76	=76	=76	=76	=76	=76	=76	=76	=76	=76
1r	.	4r	.	1CM	.	voice	.	.	C:maj
.	.	8c 8e	_	.	.	.	.	.	.
.	.	8c 8e	_	.	.	.	.	.	.
.	.	8c 8e	_	.	.	.	.	.	.
.	.	8c 8e	_	.	.	.	.	.	.
.	.	4c 4e	_	.	.	.	.	.	.
=77	=77	=77	=77	=77	=77	=77	=77	=77	=77
4~B-	Close	4d	Close	1B-M	.	voice	.	.	B-:maj
4~B-	up,	4d	up,	.	.	.	.	.	.
4B-	dark	4d	dark	.	.	.	.	.	.
4~B-	room	4~e-	room	.	.	.	.	.	.
=78	=78	=78	=78	=78	=78	=78	=78	=78	=78
4e-	sweet	4g	sweet	1FM	.	voice	.	.	F:maj
4d	talk	4f	talk	.	.	.	.	.	.
4c	in	4e-	in	.	.	.	.	.	.
4A	my	4c	my	.	.	.	.	.	.
=79	=79	=79	=79	=79	=79	=79	=79	=79	=79
4.c	ear	4.e	ear	1CM	newline	voice	E	NA	C:maj
8A	_	8d	_	.	.	.	.	.	.
2G	_	2c	_	.	.	.	.	.	.
=80	=80	=80	=80	=80	=80	=80	=80	=80	=80
1r	.	4r	.	1CM	.	voice	.	.	C:maj
.	.	8c 8e	_	.	.	.	.	.	.
.	.	8c 8e	_	.	.	.	.	.	.
.	.	8c 8e	_	.	.	.	.	.	.
.	.	8c 8e	_	.	.	.	.	.	.
.	.	4c 4e	_	.	.	.	.	.	.
=81	=81	=81	=81	=81	=81	=81	=81	=81	=81
4r	.	4r	.	1B-M	.	voice	.	.	B-:maj
4B-	Her	4d	Her	.	.	.	.	.	.
4B-	hot	4d	hot	.	.	.	.	.	.
4c	spot	4d-	spot	.	.	.	.	.	.
=82	=82	=82	=82	=82	=82	=82	=82	=82	=82
4~f	love	4g	love	1FM	.	voice	.	.	F:maj
8d	for	8f	for	.	.	.	.	.	.
[8c	me	[8e-	me	.	.	.	.	.	.
4c]	_	4e-]	_	.	.	.	.	.	.
4A	is	4c	is	.	.	.	.	.	.
=83	=83	=83	=83	=83	=83	=83	=83	=83	=83
4.c	strong	4.e	strong	1CM	.	voice	F	.	C:maj
8A	_	8d	_	.	.	.	.	.	.
2G	_	2c	_	.	.	.	.	.	.
=84	=84	=84	=84	=84	=84	=84	=84	=84	=84
1r	.	4r	.	1CM	.	voice	.	.	C:maj
.	.	8c 8e	_	.	.	.	.	.	.
.	.	8c 8e	_	.	.	.	.	.	.
.	.	8c 8e	_	.	.	.	.	.	.
.	.	8c 8e	_	.	.	.	.	.	.
.	.	4c 4e	_	.	.	.	.	.	.
=85	=85	=85	=85	=85	=85	=85	=85	=85	=85
4r	.	4r	.	1B-M	.	voice	.	.	B-:maj
4B-	This	4d	This	.	.	.	.	.	.
4B-	freeze-	4d	freeze-	.	.	.	.	.	.
4c	-frame	4e-	-frame	.	.	.	.	.	.
=86	=86	=86	=86	=86	=86	=86	=86	=86	=86
4e-	mo-	4g	mo-	1FM	.	voice	.	.	F:maj
4d	-ment	4f	-ment	.	.	.	.	.	.
4c	can't	4e-	can't	.	.	.	.	.	.
4B-	be	4~c	be	.	.	.	.	.	.
=87	=87	=87	=87	=87	=87	=87	=87	=87	=87
[1B	wrong	[1d	wrong	1GM	newline	voice	F	NA	G:maj
=88	=88	=88	=88	=88	=88	=88	=88	=88	=88
2B_	_	2d_	_	1GM	.	voice	.	.	G:maj
8B]	_	8d]	_	.	.	.	.	.	.
8A	_	8c	_	.	.	.	.	.	.
4G	_	4B	_	.	.	.	.	.	.
=89	=89	=89	=89	=89	=89	=89	=89	=89	=89
[2A	_	[2c	_	1FM	.	voice	.	.	F:maj
8A]	_	8c]	_	.	.	.	.	.	.
8r	.	8r	.	.	.	.	.	.	.
4r	.	4r	.	.	.	.	.	.	.
=90	=90	=90	=90	=90	=90	=90	=90	=90	=90
1r	.	1r	.	1FM	.	voice	.	.	F:maj
=91	=91	=91	=91	=91	=91	=91	=91	=91	=91
1r	.	1r	.	2GM	newline	organ	.	NA	G:maj
.	.	.	.	2A-M	.	organ	.	.	A-:maj/7
=92	=92	=92	=92	=92	=92	=92	=92	=92	=92
1r	.	1r	.	2AM	.	organ	.	.	A:maj/b7
.	.	.	.	2A-M	.	organ	.	.	A-:maj/7
=93	=93	=93	=93	=93	=93	=93	=93	=93	=93
1r	.	1r	.	2GM	.	organ	.	.	G:maj
.	.	.	.	2A-M	.	organ	.	.	A-:maj/7
=94	=94	=94	=94	=94	=94	=94	=94	=94	=94
1r	.	1r	.	2B-M	.	organ	.	.	B-:maj/6
.	.	.	.	2BM	.	organ	.	.	B:maj/b6
=95	=95	=95	=95	=95	=95	=95	=95	=95	=95
*>Letter>C	*>Letter>C	*>Letter>C	*>Letter>C	*>Letter>C	*>Letter>C	*>Letter>C	*>Letter>C	*>Letter>C	*>Letter>C
*>Label>Chorus	*>Label>Chorus	*>Label>Chorus	*>Label>Chorus	*>Label>Chorus	*>Label>Chorus	*>Label>Chorus	*>Label>Chorus	*>Label>Chorus	*>Label>Chorus
2r	.	4g	Freeze	2CM	newline	voice	.	NA	C:maj
.	.	4e	frame	.	.	.	.	.	.
4c	Freeze	2r	.	2N	.	voice	.	.	N.C.
4A	frame	.	.	.	.	.	.	.	.
=96	=96	=96	=96	=96	=96	=96	=96	=96	=96
2r	.	4g	Freeze	2CM	.	voice	.	.	C:maj
.	.	4e	frame	.	.	.	.	.	.
4e-	Freeze	2r	.	2N	.	voice	.	.	N.C.
8dq	_	.	.	.	.	.	.	.	.
[4e-	frame	.	.	.	.	.	.	.	.
=97	=97	=97	=97	=97	=97	=97	=97	=97	=97
4e	_	4g	Freeze	2CM	.	voice	.	.	C:maj
4r	.	4e	frame	.	.	.	.	.	.
8gq	_	.	.	.	.	.	.	.	.
4bb-	Freeze	2r	.	2N	.	voice	.	.	N.C.
4d-	frame!	.	.	.	.	.	.	.	.
=98	=98	=98	=98	=98	=98	=98	=98	=98	=98
2r	.	4g	Freeze	2CM	.	voice	.	.	C:maj
.	.	4e	frame,	.	.	.	.	.	.
8r	.	2bb-	woo!	2N	.	voice	.	.	N.C.
8c	N-	.	.	.	.	.	.	.	.
8dq	_	.	.	.	.	.	.	.	.
4e-]	-now,	.	.	.	.	.	.	.	.
=99	=99	=99	=99	=99	=99	=99	=99	=99	=99
4d	freeze	1r	.	1GM	.	voice	.	.	G:maj
4r	.	.	.	.	.	.	.	.	.
2r	.	.	.	.	.	.	.	.	.
=100	=100	=100	=100	=100	=100	=100	=100	=100	=100
1r	.	1r	.	1N	.	voice	.	.	N.C.
=101	=101	=101	=101	=101	=101	=101	=101	=101	=101
*>Letter>D	*>Letter>D	*>Letter>D	*>Letter>D	*>Letter>D	*>Letter>D	*>Letter>D	*>Letter>D	*>Letter>D	*>Letter>D
*>Label>Trans	*>Label>Trans	*>Label>Trans	*>Label>Trans	*>Label>Trans	*>Label>Trans	*>Label>Trans	*>Label>Trans	*>Label>Trans	*>Label>Trans
1r	.	1r	.	1CMm	newline	trumpet	.	NA	C:7
=102	=102	=102	=102	=102	=102	=102	=102	=102	=102
1r	.	1r	.	1CMm	.	trumpet	.	.	C:7
=103	=103	=103	=103	=103	=103	=103	=103	=103	=103
1r	.	1r	.	1CMm	.	trumpet	.	.	C:7
=104	=104	=104	=104	=104	=104	=104	=104	=104	=104
1r	.	1r	.	1CMm	.	trumpet	.	.	C:7
=105	=105	=105	=105	=105	=105	=105	=105	=105	=105
1r	.	1r	.	1CMm	.	trumpet	.	.	C:7
=106	=106	=106	=106	=106	=106	=106	=106	=106	=106
1r	.	1r	.	1CMm	.	trumpet	.	.	C:7
=107	=107	=107	=107	=107	=107	=107	=107	=107	=107
1r	.	1r	.	1CMm	.	trumpet	.	.	C:7
=108	=108	=108	=108	=108	=108	=108	=108	=108	=108
1r	.	1r	.	1CMm	.	trumpet	.	.	C:7
=109	=109	=109	=109	=109	=109	=109	=109	=109	=109
*>Letter>B	*>Letter>B	*>Letter>B	*>Letter>B	*>Letter>B	*>Letter>B	*>Letter>B	*>Letter>B	*>Letter>B	*>Letter>B
*>Label>Verse	*>Label>Verse	*>Label>Verse	*>Label>Verse	*>Label>Verse	*>Label>Verse	*>Label>Verse	*>Label>Verse	*>Label>Verse	*>Label>Verse
1r	.	1r	.	1CM	newline	trumpet	.	NA	C:maj
=110	=110	=110	=110	=110	=110	=110	=110	=110	=110
1r	.	1r	.	1CM	.	trumpet	.	.	C:maj
=111	=111	=111	=111	=111	=111	=111	=111	=111	=111
1r	.	1r	.	1B-M	.	trumpet	.	.	B-:maj
=112	=112	=112	=112	=112	=112	=112	=112	=112	=112
1r	.	1r	.	1FM	.	trumpet	.	.	F:maj
=113	=113	=113	=113	=113	=113	=113	=113	=113	=113
4c 4e	Shoot	1r	.	1CM	.	trumpet	.	.	C:maj
4r	.	.	.	.	.	.	.	.	.
4c 4e	Shoot	.	.	.	.	.	.	.	.
4r	.	.	.	.	.	.	.	.	.
=114	=114	=114	=114	=114	=114	=114	=114	=114	=114
4r	.	1r	.	1CM	.	trumpet	.	.	C:maj
8c 8e	Dee-	.	.	.	.	.	.	.	.
8c 8e	-dle	.	.	.	.	.	.	.	.
8c 8e	lee-	.	.	.	.	.	.	.	.
8c 8e	-dle	.	.	.	.	.	.	.	.
4c 4e	lee!	.	.	.	.	.	.	.	.
=115	=115	=115	=115	=115	=115	=115	=115	=115	=115
1r	.	1r	.	1B-M	.	trumpet	.	.	B-:maj
=116	=116	=116	=116	=116	=116	=116	=116	=116	=116
1r	.	1r	.	1FM	.	trumpet	.	.	F:maj
=117	=117	=117	=117	=117	=117	=117	=117	=117	=117
4c 4e	Shoot	1r	.	1CM	newline	.	.	NA	C:maj
4r	.	.	.	.	.	.	.	.	.
4c 4e	Shoot	.	.	.	.	.	.	.	.
4r	.	.	.	.	.	.	.	.	.
=118	=118	=118	=118	=118	=118	=118	=118	=118	=118
4r	.	1r	.	2B-M	.	.	.	.	B-:maj
8c 8e	Dee-	.	.	.	.	.	.	.	.
8c 8e	-dle	.	.	.	.	.	.	.	.
8c 8e	lee-	.	.	2FM	.	.	.	.	F:maj
8c 8e	-dle	.	.	.	.	.	.	.	.
4c 4e	lee!	.	.	.	.	.	.	.	.
=119	=119	=119	=119	=119	=119	=119	=119	=119	=119
1r	.	1r	.	1CM	.	.	.	.	C:maj
=120	=120	=120	=120	=120	=120	=120	=120	=120	=120
1r	.	1r	.	2B-M	.	.	.	.	B-:maj
.	.	.	.	2FM	.	.	.	.	F:maj
=121	=121	=121	=121	=121	=121	=121	=121	=121	=121
4c 4e	Shoot	1r	.	1CM	.	.	.	.	C:maj
4r	.	.	.	.	.	.	.	.	.
4c 4e	Shoot	.	.	.	.	.	.	.	.
4r	.	.	.	.	.	.	.	.	.
=122	=122	=122	=122	=122	=122	=122	=122	=122	=122
4r	.	1r	.	2B-M	.	.	.	.	B-:maj
8c 8e	Dee-	.	.	.	.	.	.	.	.
8c 8e	-dle	.	.	.	.	.	.	.	.
8c 8e	lee-	.	.	2FM	.	.	.	.	F:maj
8c 8e	-dle	.	.	.	.	.	.	.	.
4c 4e	lee!	.	.	.	.	.	.	.	.
=123	=123	=123	=123	=123	=123	=123	=123	=123	=123
1r	.	1r	.	1CM	.	.	.	.	C:maj
=124	=124	=124	=124	=124	=124	=124	=124	=124	=124
1r	.	1r	.	2B-M	.	.	.	.	B-:maj
.	.	.	.	2FM	.	.	.	.	F:maj
=125	=125	=125	=125	=125	=125	=125	=125	=125	=125
1r	.	1r	.	1GM	newline	trumpet	.	NA	G:maj
=126	=126	=126	=126	=126	=126	=126	=126	=126	=126
1r	.	1r	.	1GM	.	trumpet	.	.	G:maj
=127	=127	=127	=127	=127	=127	=127	=127	=127	=127
1r	.	1r	.	1FM	.	trumpet	.	.	F:maj
=128	=128	=128	=128	=128	=128	=128	=128	=128	=128
1r	.	1r	.	1FM	.	trumpet	.	.	F:maj
=129	=129	=129	=129	=129	=129	=129	=129	=129	=129
1r	.	1r	.	2GM	newline	organ	.	NA	G:maj
.	.	.	.	2A-M	.	organ	.	.	A-:maj/7
=130	=130	=130	=130	=130	=130	=130	=130	=130	=130
1r	.	1r	.	2AM	.	organ	.	.	A:maj/b7
.	.	.	.	2A-M	.	organ	.	.	A-:maj/7
=131	=131	=131	=131	=131	=131	=131	=131	=131	=131
1r	.	1r	.	2GM	.	organ	.	.	G:maj
.	.	.	.	2A-M	.	organ	.	.	A-:maj/7
=132	=132	=132	=132	=132	=132	=132	=132	=132	=132
1r	.	1r	.	2B-M	.	organ	.	.	B-:maj/6
.	.	.	.	2BM	.	organ	.	.	B:maj/b6
=133	=133	=133	=133	=133	=133	=133	=133	=133	=133
*>Letter>C	*>Letter>C	*>Letter>C	*>Letter>C	*>Letter>C	*>Letter>C	*>Letter>C	*>Letter>C	*>Letter>C	*>Letter>C
*>Label>Chorus	*>Label>Chorus	*>Label>Chorus	*>Label>Chorus	*>Label>Chorus	*>Label>Chorus	*>Label>Chorus	*>Label>Chorus	*>Label>Chorus	*>Label>Chorus
2r	.	4g	Freeze	2CM	newline	voice	.	NA	C:maj
.	.	4e	frame	.	.	.	.	.	.
4c	Freeze	2r	.	2N	.	voice	.	.	N.C.
[4~A	frame	.	.	.	.	.	.	.	.
=134	=134	=134	=134	=134	=134	=134	=134	=134	=134
4A]	_	4g	Freeze	2CM	.	voice	.	.	C:maj
4r	.	4e	frame	.	.	.	.	.	.
4c 4e-	Freeze	2r	.	2N	.	voice	.	.	N.C.
8dq 8f#q	_	.	.	.	.	.	.	.	.
4e- 4g	frame	.	.	.	.	.	.	.	.
=135	=135	=135	=135	=135	=135	=135	=135	=135	=135
2r	.	4g	Freeze	2CM	.	voice	.	.	C:maj
.	.	4e	frame	.	.	.	.	.	.
8gq	_	.	.	.	.	.	.	.	.
4bb-	Freeze	2r	.	2N	.	voice	.	.	N.C.
4d-	frame	.	.	.	.	.	.	.	.
=136	=136	=136	=136	=136	=136	=136	=136	=136	=136
2r	.	4g	Freeze	2CM	.	voice	.	.	C:maj
.	.	4e	frame,	.	.	.	.	.	.
8r	.	2bb-	woo!	2N	.	voice	.	.	N.C.
8c	N-	.	.	.	.	.	.	.	.
8dq	_	.	.	.	.	.	.	.	.
4e-	-now,	.	.	.	.	.	.	.	.
=137	=137	=137	=137	=137	=137	=137	=137	=137	=137
1d	freeze!	1r	.	1GM	.	voice	.	.	G:maj
=138	=138	=138	=138	=138	=138	=138	=138	=138	=138
1r	.	1r	.	1N	.	voice	.	.	N.C.
=139	=139	=139	=139	=139	=139	=139	=139	=139	=139
*>Letter>A	*>Letter>A	*>Letter>A	*>Letter>A	*>Letter>A	*>Letter>A	*>Letter>A	*>Letter>A	*>Letter>A	*>Letter>A
*>Label>Outro	*>Label>Outro	*>Label>Outro	*>Label>Outro	*>Label>Outro	*>Label>Outro	*>Label>Outro	*>Label>Outro	*>Label>Outro	*>Label>Outro
1r	.	1r	.	1CM	newline	organ	.	NA	C:maj
=140	=140	=140	=140	=140	=140	=140	=140	=140	=140
1r	.	1r	.	1CM	.	organ	.	.	C:maj
=141	=141	=141	=141	=141	=141	=141	=141	=141	=141
1r	.	1r	.	1B-M	.	organ	.	.	B-:maj
=142	=142	=142	=142	=142	=142	=142	=142	=142	=142
1r	.	1r	.	1FM	.	organ	.	.	F:maj
=143	=143	=143	=143	=143	=143	=143	=143	=143	=143
1r	.	1r	.	1CM	.	organ	.	.	C:maj
=144	=144	=144	=144	=144	=144	=144	=144	=144	=144
1r	.	1r	.	1CM	.	organ	.	.	C:maj
=145	=145	=145	=145	=145	=145	=145	=145	=145	=145
1a-	Yeah!	1r	.	1B-M	.	organ	.	.	B-:maj
=146	=146	=146	=146	=146	=146	=146	=146	=146	=146
1r	.	1r	.	1FM	.	organ	.	.	F:maj
=147	=147	=147	=147	=147	=147	=147	=147	=147	=147
1r	.	4c 4e	Freeze	1CM	newline	voice	.	NA	C:maj
.	.	4c 4e	frame	.	.	.	.	.	.
.	.	2r	.	.	.	.	.	.	.
=148	=148	=148	=148	=148	=148	=148	=148	=148	=148
4r	.	1r	.	1CM	.	voice	.	.	C:maj
8e	Oh,	.	.	.	.	.	.	.	.
[8d	yeah!	.	.	.	.	.	.	.	.
16d]	_	.	.	.	.	.	.	.	.
[8.c	_	.	.	.	.	.	.	.	.
4c]	_	.	.	.	.	.	.	.	.
=149	=149	=149	=149	=149	=149	=149	=149	=149	=149
1r	.	4d 4f 4b-	Freeze	1B-M	.	voice	.	.	B-:maj
.	.	[4d [4f [4b-	frame	.	.	.	.	.	.
.	.	8d] 8f] 8b-]	_	.	.	.	.	.	.
.	.	8e 8g 8cc	_	.	.	.	.	.	.
.	.	4d 4f 4b-	_	.	.	.	.	.	.
=150	=150	=150	=150	=150	=150	=150	=150	=150	=150
1r	.	2c 2f 2a	_	1FM	.	voice	.	.	F:maj
.	.	8r	.	.	.	.	.	.	.
.	.	8A	It's	.	.	.	.	.	.
.	.	8A	time	.	.	.	.	.	.
.	.	8A	to	.	.	.	.	.	.
=151	=151	=151	=151	=151	=151	=151	=151	=151	=151
2r	.	4c 4e	Freeze	1CM	.	voice	.	.	C:maj
.	.	4c 4e	frame	.	.	.	.	.	.
8d#q	_	.	.	.	.	.	.	.	.
4e	Freeze	2r	.	.	.	.	.	.	.
[4c	frame	.	.	.	.	.	.	.	.
=152	=152	=152	=152	=152	=152	=152	=152	=152	=152
2c_	_	1r	.	1CM	.	voice	.	.	C:maj
8c]	_	.	.	.	.	.	.	.	.
8A	_	.	.	.	.	.	.	.	.
4r	.	.	.	.	.	.	.	.	.
=153	=153	=153	=153	=153	=153	=153	=153	=153	=153
1r	.	4d 4f 4b-	Freeze	1B-M	.	voice	.	.	B-:maj
.	.	[4d [4f [4b-	frame	.	.	.	.	.	.
.	.	8d] 8f] 8b-]	_	.	.	.	.	.	.
.	.	8e 8g 8cc	_	.	.	.	.	.	.
.	.	4d 4f 4b-	_	.	.	.	.	.	.
=154	=154	=154	=154	=154	=154	=154	=154	=154	=154
2r	.	2c 2f 2a	_	1FM	.	voice	.	.	F:maj
8r	.	8r	.	.	.	.	.	.	.
8A	It's	8A	It's	.	.	.	.	.	.
8e	like	8A	time	.	.	.	.	.	.
8c	a	8A	to	.	.	.	.	.	.
=155	=155	=155	=155	=155	=155	=155	=155	=155	=155
4c	freeze	4c 4e	Shoot	1CM	newline	voice	.	NA	C:maj
4r	.	4r	.	.	.	.	.	.	.
4c	freeze	4c 4e	shoot	.	.	.	.	.	.
4r	.	4r	.	.	.	.	.	.	.
=156	=156	=156	=156	=156	=156	=156	=156	=156	=156
4c	freeze	4r	.	1CM	.	voice	.	.	C:maj
4r	.	8c 8e	dee-	.	.	.	.	.	.
.	.	8c 8e	-dle	.	.	.	.	.	.
2aa-	woo!	8c 8e	lee-	.	.	.	.	.	.
.	.	8c 8e	-dle	.	.	.	.	.	.
.	.	4c 4e	lee!	.	.	.	.	.	.
=157	=157	=157	=157	=157	=157	=157	=157	=157	=157
1r	.	4d 4f 4b-	Freeze	1B-M	.	voice	.	.	B-:maj
.	.	[4d [4f [4b-	frame	.	.	.	.	.	.
.	.	8d] 8f] 8b-]	_	.	.	.	.	.	.
.	.	8e 8g 8cc	_	.	.	.	.	.	.
.	.	4d 4f 4b-	_	.	.	.	.	.	.
=158	=158	=158	=158	=158	=158	=158	=158	=158	=158
2r	.	2c 2f 2a	_	1FM	.	voice	.	.	F:maj
8r	.	8r	.	.	.	.	.	.	.
8A	It's	8A	It's	.	.	.	.	.	.
8e	like	8A	time	.	.	.	.	.	.
8c	a	8A	to	.	.	.	.	.	.
=159	=159	=159	=159	=159	=159	=159	=159	=159	=159
4c	freeze	4c 4e	Shoot	1CM	.	voice	.	.	C:maj
4r	.	4r	.	.	.	.	.	.	.
4c	freeze	4c 4e	shoot	.	.	.	.	.	.
4r	.	4r	.	.	.	.	.	.	.
=160	=160	=160	=160	=160	=160	=160	=160	=160	=160
*clefG2	*	*	*	*	*	*	*	*	*
[1gg	ah	4r	.	1CM	.	voice	.	.	C:maj
.	.	8c 8e	dee-	.	.	.	.	.	.
.	.	8c 8e	-dle	.	.	.	.	.	.
.	.	8c 8e	lee-	.	.	.	.	.	.
.	.	8c 8e	-dle	.	.	.	.	.	.
.	.	4c 4e	lee!	.	.	.	.	.	.
=161	=161	=161	=161	=161	=161	=161	=161	=161	=161
1gg_	_	4d 4f 4b-	Freeze	1B-M	.	voice	.	.	B-:maj
.	.	[4d [4f [4b-	frame	.	.	.	.	.	.
.	.	8d] 8f] 8b-]	_	.	.	.	.	.	.
.	.	8e 8g 8cc	_	.	.	.	.	.	.
.	.	4d 4f 4b-	_	.	.	.	.	.	.
=162	=162	=162	=162	=162	=162	=162	=162	=162	=162
1gg_	_	2c 2f 2a	_	1FM	.	voice	.	.	F:maj
.	.	8r	.	.	.	.	.	.	.
.	.	8A	It's	.	.	.	.	.	.
.	.	8A	time	.	.	.	.	.	.
.	.	8A	to	.	.	.	.	.	.
=163	=163	=163	=163	=163	=163	=163	=163	=163	=163
1gg_	_	4c 4e	Shoot	1CM	newline	voice	.	NA	C:maj
.	.	4r	.	.	.	.	.	.	.
.	.	4c 4e	shoot	.	.	.	.	.	.
.	.	4r	.	.	.	.	.	.	.
=164	=164	=164	=164	=164	=164	=164	=164	=164	=164
2.gg]	_	4r	.	1CM	.	voice	.	.	C:maj
.	.	8c 8e	dee-	.	.	.	.	.	.
.	.	8c 8e	-dle	.	.	.	.	.	.
.	.	8c 8e	lee-	.	.	.	.	.	.
.	.	8c 8e	-dle	.	.	.	.	.	.
[4cc	_	4c 4e	lee!	.	.	.	.	.	.
=165	=165	=165	=165	=165	=165	=165	=165	=165	=165
4.cc]	_	4d 4f 4b-	Freeze	1B-M	.	voice	.	.	B-:maj
.	.	[4d [4f [4b-	frame	.	.	.	.	.	.
8r	.	.	.	.	.	.	.	.	.
2r	.	8d] 8f] 8b-]	_	.	.	.	.	.	.
.	.	8e 8g 8cc	_	.	.	.	.	.	.
.	.	4d 4f 4b-	_	.	.	.	.	.	.
=166	=166	=166	=166	=166	=166	=166	=166	=166	=166
1r	.	2c 2f 2a	_	1FM	.	voice	.	.	F:maj
.	.	8r	.	.	.	.	.	.	.
.	.	8A	It's	.	.	.	.	.	.
.	.	8A	time	.	.	.	.	.	.
.	.	8A	to	.	.	.	.	.	.
=167	=167	=167	=167	=167	=167	=167	=167	=167	=167
1r	.	4c 4e	Shoot	1CM	.	voice	.	.	C:maj
.	.	4r	.	.	.	.	.	.	.
.	.	4c 4e	shoot	.	.	.	.	.	.
.	.	4r	.	.	.	.	.	.	.
=168	=168	=168	=168	=168	=168	=168	=168	=168	=168
1r	.	4r	.	1CM	.	voice	.	.	C:maj
.	.	8c 8e	dee-	.	.	.	.	.	.
.	.	8c 8e	-dle	.	.	.	.	.	.
.	.	8c 8e	lee-	.	.	.	.	.	.
.	.	8c 8e	-dle	.	.	.	.	.	.
.	.	4c 4e	lee!	.	.	.	.	.	.
=169	=169	=169	=169	=169	=169	=169	=169	=169	=169
1r	.	4d 4f 4b-	Freeze	1B-M	.	voice	.	.	B-:maj
.	.	[4d [4f [4b-	frame!	.	.	.	.	.	.
.	.	8d] 8f] 8b-]	_	.	.	.	.	.	.
.	.	8e 8g 8cc	_	.	.	.	.	.	.
.	.	4d 4f 4b-	_	.	.	.	.	.	.
=170	=170	=170	=170	=170	=170	=170	=170	=170	=170
1r	.	1c; 1f 1a	_	1FM	.	voice	.	.	F:maj
r;	.	r;	.	1r;	.	r	.	.	N.C.
r;	.	r;	.	1r;	.	r	.	NA	N.C.
r;	.	r;	.	1r;	.	r	.	NA	N.C.
*-	*-	*-	*-	*-	*-	*-	*-	*-	*-
!!!BillboardChartDate: 1982/03/20
!!!BillboardPeak: 4
!!!BillboardWeeksOnChart: 16
!!!COC: The J. Geils Band
!!!ENC: Nathaniel Condit-Schultz
!!!EST: Awating manual error checking and editing.
!!!OTL: Freeze-Frame
!!!RDF**chordsym: original McGill chord annotation + (implied pitch class set, with bass pitch in first position)
!!!RDF**harmony: **recip + pitch class of root + harmonic quality
!!!RDF**leadinstrument: original McGill primary instrumentation annotation
!!!RDF**phrase: newline = linebreak in original McGill transcription
!!!RDF**timestamp: McGill audio timestamp in seconds
!!!RDT: 2017/01/12/
!!!SampleActualRank: 18
!!!SampleID#: 1002
!!!SampleTargetRank: 19
